!!!OTL: ES WAREN ZWEI VERLIEBTE IN DEM MAILAND
!!!ARE: Europa, Mitteleuropa, Deutschland, Westfalen
!!!SCT: E0049C
!!!YEM: Copyright 1995, estate of Helmut Schaffrath.
**kern
*ICvox
*Ivox
*M4/4
*k[f#]
*G:
{8g
8a
=1
4b
4b
4b
8a
8b
=2
4cc
4a
4r}
{8a
8b
=3
4cc
4cc
8cc
8ee
8dd
8cc
=4
4dd
4b
4r}
{8g
8b
=5
4dd
8dd
8dd
8cc
8b
8a
8g
=6
4ee
4ee
4ee}
{8gg
8ee
=7
4dd
8dd
8dd
4dd
8a
8cc
=8
2b
4r}
{8g
8b
=9
4dd
8dd
8dd
8cc
8b
8a
8g
=10
4ee
4ee
4ee}
{8gg
8ee
=11
4dd
8dd
8dd
4dd
8a
8cc
=12
2b
4r}
==
!!!AGN: erzaehlendes Volks - Lied, Sage, Mord, Ballade ?
!!!ONB: ESAC (Essen Associative Code) Database: ERK1
!!!AMT: simple quadruple
!!!AIN: vox
!!!EED: Helmut Schaffrath
!!!EEV: 1.0
*-
